Newaita/actions/16/run-build-configure.svg

<svg height="16" viewBox="0 0 16 16" width="16" xmlns="http://www.w3.org/2000/svg"><g fill="#424242"><path d="m7.277344 1.4375c-.167969 0-.3125.121094-.339844.285156l-.195312 1.183594c-.578126.132812-1.121094.359375-1.605469.664062l-.976563-.699218c-.054687-.039063-.121094-.0625-.191406-.0625-.09375 0-.183594.035156-.25.101562l-.933594.933594c-.121094.121094-.136718.304688-.039062.441406l.699218.976563c-.304687.488281-.53125 1.027343-.664062 1.605469l-1.183594.195312c-.164062.027344-.285156.171875-.285156.339844v1.324218c0 .167969.121094.308594.285156.335938l1.183594.199219c.132812.574219.359375 1.117187.664062 1.605469l-.699218.972656c-.097656.136718-.082032.324218.039062.441406l.933594.9375c.121094.117188.304688.132812.441406.035156l.976563-.695312c.488281.304687 1.027343.53125 1.605469.660156l.195312 1.1875c.027344.164062.171875.285156.339844.285156h1.324218c.164063 0 .308594-.121094.335938-.285156l.199219-1.1875c.039062-.007812.082031-.019531.125-.027344v-1.382812c-.414063.144531-.859375.222656-1.324219.222656-2.199219 0-3.96875-1.769531-3.96875-3.96875s1.769531-3.96875 3.96875-3.96875 3.96875 1.769531 3.96875 3.96875c0 .464844-.078125.910156-.222656 1.324219h1.382812c.007813-.042969.019532-.085938.027344-.125l1.183594-.199219c.167968-.027344.289062-.167969.289062-.335938v-1.324218c0-.167969-.121094-.3125-.289062-.339844l-1.183594-.195312c-.128906-.578126-.355469-1.117188-.660156-1.605469l.695312-.976563c.097656-.136718.082032-.320312-.035156-.441406l-.9375-.933594c-.066406-.066406-.152344-.101562-.246094-.101562-.070312 0-.136718.023437-.195312.0625l-.972656.699218c-.488282-.304687-1.03125-.53125-1.605469-.664062l-.199219-1.183594c-.027344-.164062-.171875-.285156-.335938-.285156zm.289062.683594h.742188l.113281.671875c-.160156-.015625-.320313-.023438-.484375-.023438-.160156 0-.324219.007813-.480469.023438zm-3.566406 1.480468.550781.390626c-.25.207031-.476562.433593-.683593.683593l-.390626-.550781zm7.878906 0 .523438.523438-.394532.550781c-.203124-.25-.433593-.476562-.679687-.683593zm-9.210937 3.980469c-.015625.15625-.023438.320313-.023438.480469 0 .164062.007813.324219.023438.484375l-.671875-.113281v-.742188zm10.539062 0 .671875.109375v.742188l-.671875.113281c.015625-.160156.023438-.320313.023438-.484375 0-.160156-.007813-.324219-.023438-.480469zm-9.339843 3.871094c.207031.246094.433593.476563.683593.679687l-.550781.394532-.523438-.523438zm3.589843 1.878906c.15625.015625.320313.023438.480469.023438.164062 0 .324219-.007813.484375-.023438l-.113281.671875h-.742188zm0 0"/><path d="m6.613281 5.746094c-.191406-.007813-.355469.148437-.355469.34375v3.96875c0 .269531.292969.433594.519532.296875l3.308594-1.984375c.222656-.136719.222656-.457032 0-.589844l-3.308594-1.984375c-.046875-.03125-.105469-.046875-.164063-.050781zm0 0"/><path d="m10.914062 13.355469h3.308594c.183594 0 .332032.148437.332032.332031v.660156c0 .183594-.148438.332032-.332032.332032h-3.308594c-.179687 0-.328124-.148438-.328124-.332032v-.660156c0-.183594.148437-.332031.328124-.332031zm0 0"/><path d="m10.914062 10.710938h3.308594c.183594 0 .332032.148437.332032.328124v.664063c0 .179687-.148438.328125-.332032.328125h-3.308594c-.179687 0-.328124-.148438-.328124-.328125v-.664063c0-.179687.148437-.328124.328124-.328124zm0 0"/></g></svg>

<?xml version="1.0" encoding="UTF-8"?>
<svg xmlns="http://www.w3.org/2000/svg" xmlns:xlink="http://www.w3.org/1999/xlink" width="16px" height="16px" viewBox="0 0 16 16" version="1.1">
<g id="surface1">
<path style=" stroke:none;fill-rule:nonzero;fill:rgb(25.882354%,25.882354%,25.882354%);fill-opacity:1;" d="M 7.277344 1.4375 C 7.109375 1.4375 6.964844 1.558594 6.9375 1.722656 L 6.742188 2.90625 C 6.164062 3.039062 5.621094 3.265625 5.136719 3.570312 L 4.160156 2.871094 C 4.105469 2.832031 4.039062 2.808594 3.96875 2.808594 C 3.875 2.808594 3.785156 2.84375 3.71875 2.910156 L 2.785156 3.84375 C 2.664062 3.964844 2.648438 4.148438 2.746094 4.285156 L 3.445312 5.261719 C 3.140625 5.75 2.914062 6.289062 2.78125 6.867188 L 1.597656 7.0625 C 1.433594 7.089844 1.3125 7.234375 1.3125 7.402344 L 1.3125 8.726562 C 1.3125 8.894531 1.433594 9.035156 1.597656 9.0625 L 2.78125 9.261719 C 2.914062 9.835938 3.140625 10.378906 3.445312 10.867188 L 2.746094 11.839844 C 2.648438 11.976562 2.664062 12.164062 2.785156 12.28125 L 3.71875 13.21875 C 3.839844 13.335938 4.023438 13.351562 4.160156 13.253906 L 5.136719 12.558594 C 5.625 12.863281 6.164062 13.089844 6.742188 13.21875 L 6.9375 14.40625 C 6.964844 14.570312 7.109375 14.691406 7.277344 14.691406 L 8.601562 14.691406 C 8.765625 14.691406 8.910156 14.570312 8.9375 14.40625 L 9.136719 13.21875 C 9.175781 13.210938 9.21875 13.199219 9.261719 13.191406 L 9.261719 11.808594 C 8.847656 11.953125 8.402344 12.03125 7.9375 12.03125 C 5.738281 12.03125 3.96875 10.261719 3.96875 8.0625 C 3.96875 5.863281 5.738281 4.09375 7.9375 4.09375 C 10.136719 4.09375 11.90625 5.863281 11.90625 8.0625 C 11.90625 8.527344 11.828125 8.972656 11.683594 9.386719 L 13.066406 9.386719 C 13.074219 9.34375 13.085938 9.300781 13.09375 9.261719 L 14.277344 9.0625 C 14.445312 9.035156 14.566406 8.894531 14.566406 8.726562 L 14.566406 7.402344 C 14.566406 7.234375 14.445312 7.089844 14.277344 7.0625 L 13.09375 6.867188 C 12.964844 6.289062 12.738281 5.75 12.433594 5.261719 L 13.128906 4.285156 C 13.226562 4.148438 13.210938 3.964844 13.09375 3.84375 L 12.15625 2.910156 C 12.089844 2.84375 12.003906 2.808594 11.910156 2.808594 C 11.839844 2.808594 11.773438 2.832031 11.714844 2.871094 L 10.742188 3.570312 C 10.253906 3.265625 9.710938 3.039062 9.136719 2.90625 L 8.9375 1.722656 C 8.910156 1.558594 8.765625 1.4375 8.601562 1.4375 Z M 7.566406 2.121094 L 8.308594 2.121094 L 8.421875 2.792969 C 8.261719 2.777344 8.101562 2.769531 7.9375 2.769531 C 7.777344 2.769531 7.613281 2.777344 7.457031 2.792969 Z M 4 3.601562 L 4.550781 3.992188 C 4.300781 4.199219 4.074219 4.425781 3.867188 4.675781 L 3.476562 4.125 Z M 11.878906 3.601562 L 12.402344 4.125 L 12.007812 4.675781 C 11.804688 4.425781 11.574219 4.199219 11.328125 3.992188 Z M 2.667969 7.582031 C 2.652344 7.738281 2.644531 7.902344 2.644531 8.0625 C 2.644531 8.226562 2.652344 8.386719 2.667969 8.546875 L 1.996094 8.433594 L 1.996094 7.691406 Z M 13.207031 7.582031 L 13.878906 7.691406 L 13.878906 8.433594 L 13.207031 8.546875 C 13.222656 8.386719 13.230469 8.226562 13.230469 8.0625 C 13.230469 7.902344 13.222656 7.738281 13.207031 7.582031 Z M 3.867188 11.453125 C 4.074219 11.699219 4.300781 11.929688 4.550781 12.132812 L 4 12.527344 L 3.476562 12.003906 Z M 7.457031 13.332031 C 7.613281 13.347656 7.777344 13.355469 7.9375 13.355469 C 8.101562 13.355469 8.261719 13.347656 8.421875 13.332031 L 8.308594 14.003906 L 7.566406 14.003906 Z M 7.457031 13.332031 "/>
<path style=" stroke:none;fill-rule:nonzero;fill:rgb(25.882354%,25.882354%,25.882354%);fill-opacity:1;" d="M 6.613281 5.746094 C 6.421875 5.738281 6.257812 5.894531 6.257812 6.089844 L 6.257812 10.058594 C 6.257812 10.328125 6.550781 10.492188 6.777344 10.355469 L 10.085938 8.371094 C 10.308594 8.234375 10.308594 7.914062 10.085938 7.78125 L 6.777344 5.796875 C 6.730469 5.765625 6.671875 5.75 6.613281 5.746094 Z M 6.613281 5.746094 "/>
<path style=" stroke:none;fill-rule:nonzero;fill:rgb(25.882354%,25.882354%,25.882354%);fill-opacity:1;" d="M 10.914062 13.355469 L 14.222656 13.355469 C 14.40625 13.355469 14.554688 13.503906 14.554688 13.6875 L 14.554688 14.347656 C 14.554688 14.53125 14.40625 14.679688 14.222656 14.679688 L 10.914062 14.679688 C 10.734375 14.679688 10.585938 14.53125 10.585938 14.347656 L 10.585938 13.6875 C 10.585938 13.503906 10.734375 13.355469 10.914062 13.355469 Z M 10.914062 13.355469 "/>
<path style=" stroke:none;fill-rule:nonzero;fill:rgb(25.882354%,25.882354%,25.882354%);fill-opacity:1;" d="M 10.914062 10.710938 L 14.222656 10.710938 C 14.40625 10.710938 14.554688 10.859375 14.554688 11.039062 L 14.554688 11.703125 C 14.554688 11.882812 14.40625 12.03125 14.222656 12.03125 L 10.914062 12.03125 C 10.734375 12.03125 10.585938 11.882812 10.585938 11.703125 L 10.585938 11.039062 C 10.585938 10.859375 10.734375 10.710938 10.914062 10.710938 Z M 10.914062 10.710938 "/>
</g>
</svg>
